X: 53
T: Miss Brown's Favourite
R: jig
B: William Shepherd "1st Collection" 1793 p.5 #3
F: http://imslp.org/wiki/File:PMLP73094-Shepherd_Collections_HMT.pdf
C: William Shepherd (17??-1812)
Z: 2012 John Chambers <jc:trillian.mit.edu>
N: The original (poor) staff breaks are kept here.
M: 6/8
L: 1/8
K: D
A/G/ |\
F2D DFD | ABc dAF | F2D DFD | E=cG EFG | F2D DFD | ABc dAF |
Egf edc | dAF D2 :||: g | f2d def | gab efg | {g}fef def | ecA A2 [1 g |
fef def | gab efg | fdf ecA | dAF D2 :|[2 A | Bdd Add | Gee Fdd | Egf edc | dAF D2 |]
